images/ProcessIcons/Prototyping.svg

<svg width="24" height="24" viewBox="0 0 24 24" fill="none" xmlns="http://www.w3.org/2000/svg">
<path d="M2 5.57143C2 4.62423 2.37619 3.71582 3.04582 3.04605C3.71545 2.37627 4.62366 2 5.57066 2H18.4251C19.3721 2 20.2803 2.37627 20.9499 3.04605C21.6195 3.71582 21.9957 4.62423 21.9957 5.57143V6.28571H22V7.71429H21.9957V18.4286C21.9957 19.3758 21.6195 20.2842 20.9499 20.954C20.2803 21.6237 19.3721 22 18.4251 22H5.57066C4.62366 22 3.71545 21.6237 3.04582 20.954C2.37619 20.2842 2 19.3758 2 18.4286V5.57143ZM20.5674 6.28571V5.57143C20.5674 5.00311 20.3417 4.45806 19.94 4.0562C19.5382 3.65434 18.9933 3.42857 18.4251 3.42857H5.57066C5.00246 3.42857 4.45754 3.65434 4.05576 4.0562C3.65398 4.45806 3.42827 5.00311 3.42827 5.57143V6.28571H20.5674ZM3.42827 7.71429V18.4286C3.42827 18.9969 3.65398 19.5419 4.05576 19.9438C4.45754 20.3457 5.00246 20.5714 5.57066 20.5714H18.4251C18.9933 20.5714 19.5382 20.3457 19.94 19.9438C20.3417 19.5419 20.5674 18.9969 20.5674 18.4286V7.71429H3.42827ZM5.57495 9.14286C5.38555 9.14286 5.20391 9.21811 5.06998 9.35207C4.93605 9.48602 4.86082 9.6677 4.86082 9.85714V15.5714C4.86082 15.7609 4.93605 15.9426 5.06998 16.0765C5.20391 16.2105 5.38555 16.2857 5.57495 16.2857H11.288C11.4774 16.2857 11.6591 16.2105 11.793 16.0765C11.9269 15.9426 12.0021 15.7609 12.0021 15.5714V9.85714C12.0021 9.6677 11.9269 9.48602 11.793 9.35207C11.6591 9.21811 11.4774 9.14286 11.288 9.14286H5.57495ZM10.5739 10.5714V14.8571H6.28908V10.5714H10.5739Z" fill="black"/>
</svg>

<svg xmlns="http://www.w3.org/2000/svg" width="24" height="24" fill="none" xmlns:v="https://vecta.io/nano"><path d="M2 5.571A3.57 3.57 0 0 1 5.571 2h12.854a3.57 3.57 0 0 1 3.571 3.571v.714H22v1.429h-.004v10.714A3.57 3.57 0 0 1 18.425 22H5.571A3.57 3.57 0 0 1 2 18.429V5.571zm18.567.714v-.714c0-.568-.226-1.113-.627-1.515a2.14 2.14 0 0 0-1.515-.628H5.571a2.14 2.14 0 0 0-1.515.628c-.402.402-.627.947-.627 1.515v.714h17.139zM3.428 7.714v10.714c0 .568.226 1.113.627 1.515a2.14 2.14 0 0 0 1.515.628h12.854a2.14 2.14 0 0 0 1.515-.628c.402-.402.627-.947.627-1.515V7.714H3.428zm2.147 1.429c-.189 0-.371.075-.505.209s-.209.316-.209.505v5.714c0 .189.075.371.209.505s.316.209.505.209h5.713c.189 0 .371-.075.505-.209s.209-.316.209-.505V9.857c0-.189-.075-.371-.209-.505s-.316-.209-.505-.209H5.575zm4.999 1.429v4.286H6.289v-4.286h4.285z" fill="#000"/></svg>
